coreui/free/cil-wifi-signal-off.svg

<svg xmlns="http://www.w3.org/2000/svg" viewBox="0 0 512 512">
  <path fill="var(--ci-primary-color, currentColor)" d="M503.785,124.254A431.821,431.821,0,0,0,171.308,54.526L192.9,83.09A402.723,402.723,0,0,1,256,78.128a397.867,397.867,0,0,1,216.144,63.419L359.092,303l20.278,26.832L504,151.842V124.4Z" class="ci-primary"/>
  <path fill="var(--ci-primary-color, currentColor)" d="M82.542,16V37.9l25.874,34.237a431.346,431.346,0,0,0-100.2,52.117L8,124.4v27.438L237.778,480h36.444l68.5-97.829L404.564,464H427.55V441.342L106.1,16Zm239.9,339.34L256,450.232,39.856,141.547a398.932,398.932,0,0,1,88.759-42.683Z" class="ci-primary"/>
</svg>

<svg viewBox="0 0 512 512" xmlns="http://www.w3.org/2000/svg"><g><path d="M503.78 124.254v0c-96.65-67.7-216.78-92.89-332.477-69.73l21.59 28.56v0c20.87-3.31 41.96-4.97 63.1-4.97h0c76.65-.13 151.7 21.89 216.144 63.41l-113.06 161.45 20.27 26.83 124.63-177.99v-27.45Z"/><path d="M82.542 16v21.9l25.87 34.237h0c-35.54 12.9-69.23 30.42-100.2 52.11l-.22.14v27.43L237.77 479.97h36.44l68.5-97.83 61.84 81.82h22.98v-22.66L106.08 15.95Zm239.9 339.34l-66.45 94.89L39.84 141.54v0c27.7-17.84 57.52-32.18 88.75-42.69Z"/></g></svg>
